public/svgs/light/signal-slash.svg

<svg xmlns="http://www.w3.org/2000/svg" viewBox="0 0 640 512"><!-- Font Awesome Pro 6.0.0-alpha2 by @fontawesome - https://fontawesome.com License - https://fontawesome.com/license (Commercial License) --><path d="M463.999 112C463.999 103.156 456.843 96 447.999 96S431.999 103.156 431.999 112V262.863L463.999 288.125V112ZM63.999 384C55.155 384 47.999 391.156 47.999 400V496C47.999 504.844 55.155 512 63.999 512S79.999 504.844 79.999 496V400C79.999 391.156 72.843 384 63.999 384ZM591.999 16C591.999 7.156 584.843 0 575.999 0S559.999 7.156 559.999 16V363.922L591.999 389.184V16ZM431.999 496C431.999 504.844 439.155 512 447.999 512S463.999 504.844 463.999 496V451.234L431.999 425.969V496ZM191.999 288C183.155 288 175.999 295.156 175.999 304V496C175.999 504.844 183.155 512 191.999 512S207.999 504.844 207.999 496V304C207.999 295.156 200.843 288 191.999 288ZM303.999 496C303.999 504.844 311.155 512 319.999 512S335.999 504.844 335.999 496V350.18L303.999 324.914V496ZM633.921 483.438L25.921 3.422C18.984 -2.031 8.921 -0.828 3.437 6.062C-2.032 13 -0.845 23.062 6.077 28.547L614.077 508.562C617.015 510.875 620.515 512 623.984 512C628.718 512 633.405 509.906 636.562 505.922C642.03 498.984 640.843 488.922 633.921 483.438Z"/></svg>

<svg xmlns="http://www.w3.org/2000/svg" viewBox="0 0 640 512"><!--! Font Awesome Pro 6.5.1 by @fontawesome - https://fontawesome.com License - https://fontawesome.com/license (Commercial License) Copyright 2023 Fonticons, Inc. --><path d="M592 16c0-8.8-7.2-16-16-16s-16 7.2-16 16V363.9l32 25.3V16zM432 496c0 8.8 7.2 16 16 16s16-7.2 16-16V451.2L432 426v70zm32-384c0-8.8-7.2-16-16-16s-16 7.2-16 16V262.9l32 25.3V112zM304 324.9V496c0 8.8 7.2 16 16 16s16-7.2 16-16V350.2l-32-25.3zM192 288c-8.8 0-16 7.2-16 16V496c0 8.8 7.2 16 16 16s16-7.2 16-16V304c0-8.8-7.2-16-16-16zM64 384c-8.8 0-16 7.2-16 16v96c0 8.8 7.2 16 16 16s16-7.2 16-16V400c0-8.8-7.2-16-16-16zM25.9 3.4C19-2 8.9-.8 3.4 6.1S-.8 23.1 6.1 28.6l608 480c6.9 5.5 17 4.3 22.5-2.6s4.3-17-2.6-22.5L25.9 3.4z"/></svg>
